modules/ve-mw/ui/styles/images/icons/references.svg

<?xml version="1.0" encoding="utf-8"?>
<svg xmlns="http://www.w3.org/2000/svg" width="24" height="24" viewBox="0 0 24 24">
    <g id="reference" opacity=".75">
        <path id="books" d="M3 6v12h4v-12h-4zm3 10h-2v-1h2v1zm0-3h-2v-1h2v1zm2-7v12h4v-12h-4zm3 10h-2v-1h2v1zm0-3h-2v-1h2v1zm.934-5.353l6.066 10.353 3.449-2.021-6.065-10.354-3.45 2.022zm7.643 7.111l-1.726 1.012-.506-.862 1.725-1.012.507.862zm-1.517-2.588l-1.725 1.011-.506-.862 1.726-1.012.505.863z"/>
    </g>
</svg>

<?xml version="1.0" encoding="utf-8"?>
<!DOCTYPE svg PUBLIC "-//W3C//DTD SVG 1.1//EN" "http://www.w3.org/Graphics/SVG/1.1/DTD/svg11.dtd">
<svg version="1.1" xmlns="http://www.w3.org/2000/svg" xmlns:xlink="http://www.w3.org/1999/xlink" x="0px" y="0px" width="24px"
	 height="24px" viewBox="0 0 24 24" style="enable-background:new 0 0 24 24;" xml:space="preserve">
<g id="reference" style="opacity:0.75;">
	<path id="books" d="M3,6v12h4V6H3z M6,16H4v-1h2V16z M6,13H4v-1h2V13z M8,6v12h4V6H8z M11,16H9v-1h2V16z M11,13H9v-1h2V13z
		 M11.934,7.647L18,18l3.449-2.021L15.384,5.625L11.934,7.647z M19.577,14.758l-1.726,1.012l-0.506-0.862l1.725-1.012
		L19.577,14.758z M18.06,12.17l-1.725,1.011l-0.506-0.862l1.726-1.012L18.06,12.17z"/>
</g>
</svg>
